X:47
T: Der Nachtjaeger
N: Q0133C
O: Mitteleuropa, Deutschland (BRD) , Hessen, Nassau
N: Dritte Zeile = Refrain auf sinnfreie Silben. Schlusspause korrigiert.
R: Ballade, Jagd, Flucht, Vergewaltigung, Tod
M: 2/4
L: 1/16
K: G
GB | d4d2c2 | B2A2B2c2 | d2d2e2dc | B4z2
GB | d6d2 | e4d2c2 | B4A4 | G4z4
A4A2A2 | A6d2 | BBBBBABc | B4z2
GB | d6d2 | e4d2c2 | B4A4 | G4z2
